react/assets/forus-webshop/resources/_webshop-common/assets/img/file-icon-pdf.svg

<svg xmlns="http://www.w3.org/2000/svg" width="24" height="24" fill="none" viewBox="0 0 24 24"><path fill="#E2E5E7" d="M6 0C5.175 0 4.5 0.675 4.5 1.5V22.5C4.5 23.325 5.175 24 6 24H21C21.825 24 22.5 23.325 22.5 22.5V6L16.5 0H6Z"/><path fill="#B0B7BD" d="M18 6H22.5L16.5 0V4.5C16.5 5.325 17.175 6 18 6Z"/><path fill="#CAD1D8" d="M22.5 10.5L18 6H22.5V10.5Z"/><path fill="#F15642" d="M19.5 19.5C19.5 19.9125 19.1625 20.25 18.75 20.25H2.25C1.8375 20.25 1.5 19.9125 1.5 19.5V12C1.5 11.5875 1.8375 11.25 2.25 11.25H18.75C19.1625 11.25 19.5 11.5875 19.5 12V19.5Z"/><path fill="#fff" d="M4.76953 14.2103C4.76953 14.0123 4.92553 13.7963 5.17678 13.7963H6.56203C7.34203 13.7963 8.04403 14.3183 8.04403 15.3188C8.04403 16.2668 7.34203 16.7948 6.56203 16.7948H5.56078V17.5868C5.56078 17.8508 5.39278 18 5.17678 18C4.97878 18 4.76953 17.8508 4.76953 17.5868V14.2103ZM5.56078 14.5515V16.0455H6.56203C6.96403 16.0455 7.28203 15.6908 7.28203 15.3188C7.28203 14.8995 6.96403 14.5515 6.56203 14.5515H5.56078Z"/><path fill="#fff" d="M9.21869 18C9.02069 18 8.80469 17.892 8.80469 17.6288V14.2223C8.80469 14.007 9.02069 13.8503 9.21869 13.8503H10.5919C13.3324 13.8503 13.2724 18 10.6459 18H9.21869ZM9.59669 14.5823V17.2688H10.5919C12.2112 17.2688 12.2832 14.5823 10.5919 14.5823H9.59669Z"/><path fill="#fff" d="M14.2445 14.6303V15.5835H15.7737C15.9897 15.5835 16.2057 15.7995 16.2057 16.0088C16.2057 16.2068 15.9897 16.3688 15.7737 16.3688H14.2445V17.628C14.2445 17.838 14.0952 17.9993 13.8852 17.9993C13.6212 17.9993 13.46 17.838 13.46 17.628V14.2215C13.46 14.0063 13.622 13.8495 13.8852 13.8495H15.9905C16.2545 13.8495 16.4105 14.0063 16.4105 14.2215C16.4105 14.4135 16.2545 14.6295 15.9905 14.6295H14.2445V14.6303Z"/><path fill="#CAD1D8" d="M18.75 20.25H4.5V21H18.75C19.1625 21 19.5 20.6625 19.5 20.25V19.5C19.5 19.9125 19.1625 20.25 18.75 20.25Z"/></svg>

<?xml version="1.0" encoding="UTF-8" standalone="no"?><svg width="100%" height="100%" viewBox="0 0 24 24" version="1.1" xmlns="http://www.w3.org/2000/svg" xmlns:xlink="http://www.w3.org/1999/xlink" xml:space="preserve" style="fill-rule:evenodd;clip-rule:evenodd;stroke-linejoin:round;stroke-miterlimit:2;"><path d="M6,0c-0.825,0 -1.5,0.675 -1.5,1.5l0,21c0,0.825 0.675,1.5 1.5,1.5l15,0c0.825,0 1.5,-0.675 1.5,-1.5l0,-16.5l-6,-6l-10.5,0Z" style="fill:#f5f5f5;fill-rule:nonzero;"/><path d="M18,6l4.5,0l-6,-6l0,4.5c0,0.825 0.675,1.5 1.5,1.5Z" style="fill:#cdced2;fill-rule:nonzero;"/><path d="M22.5,10.5l-4.5,-4.5l4.5,0l0,4.5Z" style="fill:#cdced2;fill-opacity:0.29;fill-rule:nonzero;"/><path d="M18.75,20.25l-14.25,0l0,0.75l14.25,0c0.413,0 0.75,-0.337 0.75,-0.75l0,-0.75c0,0.413 -0.337,0.75 -0.75,0.75Z" style="fill:#cdced2;fill-opacity:0.29;fill-rule:nonzero;"/><path d="M19.5,19.5c0,0.413 -0.337,0.75 -0.75,0.75l-16.5,0c-0.413,0 -0.75,-0.337 -0.75,-0.75l0,-7.5c0,-0.412 0.337,-0.75 0.75,-0.75l16.5,0c0.413,0 0.75,0.338 0.75,0.75l0,7.5Z" style="fill:#282b39;fill-rule:nonzero;"/><path d="M4.77,14.21c-0,-0.198 0.156,-0.414 0.407,-0.414l1.385,0c0.78,0 1.482,0.522 1.482,1.523c0,0.948 -0.702,1.476 -1.482,1.476l-1.001,-0l-0,0.792c-0,0.264 -0.168,0.413 -0.384,0.413c-0.198,-0 -0.407,-0.149 -0.407,-0.413l-0,-3.377Zm0.791,0.341l-0,1.494l1.001,0c0.402,0 0.72,-0.354 0.72,-0.726c0,-0.42 -0.318,-0.768 -0.72,-0.768l-1.001,0Z" style="fill:#fff;fill-rule:nonzero;"/><path d="M9.219,18c-0.198,0 -0.414,-0.108 -0.414,-0.371l-0,-3.407c-0,-0.215 0.216,-0.372 0.414,-0.372l1.373,0c2.74,0 2.68,4.15 0.054,4.15l-1.427,0Zm0.378,-3.418l-0,2.687l0.995,-0c1.619,-0 1.691,-2.687 -0,-2.687l-0.995,0Z" style="fill:#fff;fill-rule:nonzero;"/><path d="M14.245,14.63l-0.001,0.954l1.53,-0.001c0.216,0 0.432,0.216 0.432,0.426c-0,0.198 -0.216,0.36 -0.432,0.36l-1.529,-0l-0,1.259c-0,0.21 -0.15,0.371 -0.36,0.371c-0.264,0 -0.425,-0.161 -0.425,-0.371l0,-3.406c0,-0.216 0.162,-0.372 0.425,-0.372l2.106,-0c0.264,-0 0.419,0.156 0.419,0.372c0,0.192 -0.155,0.408 -0.419,0.408l-1.746,-0Z" style="fill:#fff;fill-rule:nonzero;"/></svg>
